Images/skills-img-3.svg

<svg width="97" height="100" viewBox="0 0 97 100" fill="none" xmlns="http://www.w3.org/2000/svg">
<path d="M0 0H96.242V100H0V0Z" fill="#F7DF1E"/>
<path d="M25.3058 83.5671L32.6709 78.9358C34.0917 81.5534 35.3843 83.7682 38.4846 83.7682C41.4565 83.7682 43.3302 82.5602 43.3302 77.8618V45.9095H52.3745V77.9947C52.3745 87.728 46.8835 92.1583 38.8724 92.1583C31.6373 92.1583 27.4374 88.2649 25.3056 83.5663" fill="black"/>
<path d="M57.2868 82.5603L64.651 78.13C66.5896 81.4195 69.1091 83.8359 73.5665 83.8359C77.314 83.8359 79.7037 81.889 79.7037 79.204C79.7037 75.9819 77.2489 74.8406 73.1142 72.9617L70.8537 71.9541C64.3284 69.0682 59.9998 65.4435 59.9998 57.7909C59.9998 50.7427 65.168 45.3724 73.2437 45.3724C78.9935 45.3724 83.1281 47.4535 86.0995 52.8908L79.0577 57.5894C77.5071 54.7032 75.8279 53.5622 73.2439 53.5622C70.5951 53.5622 68.9153 55.3075 68.9153 57.5894C68.9153 60.4087 70.5951 61.5502 74.4709 63.2955L76.7318 64.3024C84.4197 67.726 88.7483 71.2162 88.7483 79.0697C88.7483 87.5281 82.3527 92.1593 73.7605 92.1593C65.3621 92.1593 59.9353 87.9978 57.287 82.5603" fill="black"/>
</svg>

<svg xmlns="http://www.w3.org/2000/svg" width="97" height="100" fill="none" xmlns:v="https://vecta.io/nano"><path d="M0 0H96.242V100H0V0Z" fill="#f7df1e"/><path d="M25.306 83.567l7.365-4.631c1.421 2.618 2.713 4.832 5.814 4.832 2.972 0 4.846-1.208 4.846-5.906V45.91h9.044v32.085c0 9.733-5.491 14.164-13.502 14.164-7.235 0-11.435-3.893-13.567-8.592m31.981-1.007l7.364-4.43c1.939 3.29 4.458 5.706 8.916 5.706 3.747 0 6.137-1.947 6.137-4.632 0-3.222-2.455-4.363-6.59-6.242l-2.26-1.008C64.328 69.068 60 65.444 60 57.791c0-7.048 5.168-12.419 13.244-12.419 5.75 0 9.884 2.081 12.856 7.518l-7.042 4.699c-1.551-2.886-3.23-4.027-5.814-4.027-2.649 0-4.329 1.745-4.329 4.027 0 2.819 1.68 3.961 5.556 5.706l2.261 1.007c7.688 3.424 12.016 6.914 12.016 14.767 0 8.458-6.396 13.09-14.988 13.09-8.398 0-13.825-4.162-16.473-9.599" fill="#000"/></svg>
